X: 42112
T: Warbling Robin, The
R: barndance
M: 4/4
K: Gmajor
ge||dBAE GEDB|dBAE GBdg|e3f gedB|BAAG A2ge|
dBAE GEDB|dBAE GBdg|e^def {g}a2ge|1 deBA G2 ge:|2 deBA G2 (3DEF||
GA (3Bcd gbag|e3d egdg|bagd eg (3def|gedB (3ABA BA|
GA (3Bcd gbag|e2ge edBA|GA (3Bcd edgd|edBA GDB,D|
G2Bd gbag|e3d egdg|bagd ef (3gfe|gedB (3ABA Bc|
dBAE (3GFE DB|dBAE GBdg|e^def gage|deBA G2||

